svg/diving.svg

<svg xmlns="http://www.w3.org/2000/svg" viewBox="0 0 24 24"><path d="m13.26 5.2.04-.02a1 1 0 0 1 1.41.12L16.97 8H20c.55 0 1 .45 1 1s-.45 1-1 1h-3.5c-.35 0-.65-.18-.83-.44l-1.5-1.79-2.53 2.36 2.93 2.05c.26.18.43.48.43.82v4c0 .55-.45 1-1 1s-1-.45-1-1v-3.5l-3.23-2.24a1.786 1.786 0 0 1-.17-2.8zM16.5 5c.84 0 1.5-.67 1.5-1.5S17.34 2 16.5 2 15 2.67 15 3.5 15.68 5 16.5 5M6 19H5c-1.66 0-3 1.34-3 3h4v-1.5h9V19z"/></svg>

<svg xmlns="http://www.w3.org/2000/svg" id="mdi-diving" viewBox="0 0 24 24"><path d="M13.26 5.2L13.3 5.18C13.72 4.82 14.35 4.88 14.71 5.3L16.97 8H20C20.55 8 21 8.45 21 9S20.55 10 20 10H16.5C16.15 10 15.85 9.82 15.67 9.56L14.17 7.77L11.64 10.13L14.57 12.18C14.83 12.36 15 12.66 15 13V17C15 17.55 14.55 18 14 18S13 17.55 13 17V13.5L9.77 11.26C8.82 10.6 8.74 9.23 9.6 8.46L13.26 5.2M16.5 5C17.34 5 18 4.33 18 3.5S17.34 2 16.5 2 15 2.67 15 3.5 15.68 5 16.5 5M6 19H5C3.34 19 2 20.34 2 22H6V20.5H15V19H6Z" /></svg>
